build/images/icons/categories/icon_1.svg

<svg width="50" height="50" viewBox="0 0 50 50" fill="none" xmlns="http://www.w3.org/2000/svg">
<path d="M0.000240326 41.2114C0.000240326 37.9805 2.62873 35.3521 5.85956 35.3521C5.93299 35.3521 6.0244 35.3521 45.9328 38.2938C45.933 38.2938 45.9333 38.2938 45.9335 38.2938C48.2136 38.463 49.9998 40.3879 49.9998 42.6762C49.9998 45.0993 48.0284 47.0707 45.6053 47.0707H43.9451V48.5355C43.9451 49.3445 43.2893 50.0003 42.4803 50.0003C41.6713 50.0003 41.0155 49.3445 41.0155 48.5355V47.0707H8.59391V48.5355C8.59391 49.3445 7.93805 50.0003 7.12908 50.0003C6.3201 50.0003 5.66425 49.3445 5.66425 48.5355V47.0657C2.52365 46.9621 0.000240326 44.3767 0.000240326 41.2114Z" fill="#AA161D"/>
<path d="M15.6536 14.7694L6.86463 11.8397C6.42401 11.6928 6.07919 11.3457 5.93525 10.9042L3.00559 1.91988C2.75482 1.15075 3.17493 0.323904 3.94406 0.0731251C4.71329 -0.177849 5.54004 0.242459 5.79081 1.01159L8.49156 9.29384L16.58 11.99C17.3475 12.2459 17.7623 13.0754 17.5065 13.8429C17.2506 14.6105 16.4211 15.0251 15.6536 14.7694Z" fill="#AA161D"/>
<path d="M14.6479 17.5232V33.0523C6.06112 32.4225 5.98788 32.4225 5.85897 32.4225C5.52304 32.4225 5.19199 32.441 4.8668 32.4791L6.81893 14.9138L14.6479 17.5232Z" fill="#AA161D"/>
</svg>

<svg width="50" height="50" fill="none" xmlns="http://www.w3.org/2000/svg"><path d="M0 41.211a5.867 5.867 0 015.86-5.859c.073 0 .164 0 40.073 2.942A4.41 4.41 0 0150 42.676a4.4 4.4 0 01-4.395 4.395h-1.66v1.465a1.465 1.465 0 11-2.93 0V47.07H8.595v1.465a1.465 1.465 0 01-2.93 0v-1.47A5.865 5.865 0 010 41.21zM15.654 14.77l-8.79-2.93a1.465 1.465 0 01-.929-.936L3.005 1.92a1.465 1.465 0 012.786-.908l2.7 8.282 8.089 2.696a1.465 1.465 0 01-.926 2.78zm-1.006 2.753v15.53c-8.587-.63-8.66-.63-8.789-.63a8.54 8.54 0 00-.992.056l1.952-17.565 7.829 2.61z" fill="#AA161D"/></svg>
